

;Inkscape Lasertools G-code
;https://github.com/ChrisWag91/Inkscape-Lasertools-Plugin

G90	;Absolute programming
G21	;Programming in millimeters (mm)
M03 S1 ;Activate laser and set power to 0 (CUSTOM)

; START infill strategy
G01 F100.0
G00 X9.76 Y7.81 F100.0
G00 X9.76 Y7.81 F100.0
M3 S1000
G01 Y23.18 F100.0
M5
G00 X9.76 Y23.18 F100.0
G00 X9.86 Y23.18 F100.0
M3 S1000
G01 Y7.81 F100.0
M5
G00 X9.86 Y7.81 F100.0
G00 X9.96 Y7.81 F100.0
M3 S1000
G01 Y23.18 F100.0
M5
G00 X9.96 Y23.18 F100.0
G00 X10.06 Y23.18 F100.0
M3 S1000
G01 Y7.81 F100.0
M5
G00 X10.06 Y7.81 F100.0
G00 X10.16 Y7.81 F100.0
M3 S1000
G01 Y23.18 F100.0
M5
G00 X10.16 Y23.18 F100.0
G00 X10.26 Y23.18 F100.0
M3 S1000
G01 Y7.81 F100.0
M5
G00 X10.26 Y7.81 F100.0
G00 X10.36 Y7.81 F100.0
M3 S1000
G01 Y23.18 F100.0
M5
G00 X10.36 Y23.18 F100.0
G00 X10.46 Y23.18 F100.0
M3 S1000
G01 Y7.81 F100.0
M5
G00 X10.46 Y7.81 F100.0
G00 X10.56 Y7.81 F100.0
M3 S1000
G01 Y23.18 F100.0
M5
G00 X10.56 Y23.18 F100.0
G00 X10.66 Y23.18 F100.0
M3 S1000
G01 Y7.81 F100.0
M5
G00 X10.66 Y7.81 F100.0
G00 X10.76 Y7.81 F100.0
M3 S1000
G01 Y23.18 F100.0
M5
G00 X10.76 Y23.18 F100.0
G00 X10.86 Y23.18 F100.0
M3 S1000
G01 Y7.81 F100.0
M5
G00 X10.86 Y7.81 F100.0
G00 X10.96 Y7.81 F100.0
M3 S1000
G01 Y23.18 F100.0
M5
G00 X10.96 Y23.18 F100.0
G00 X11.06 Y23.18 F100.0
M3 S1000
G01 Y7.81 F100.0
M5
G00 X11.06 Y7.81 F100.0
G00 X11.16 Y7.81 F100.0
M3 S1000
G01 Y23.18 F100.0
M5
G00 X11.16 Y23.18 F100.0
G00 X11.26 Y23.18 F100.0
M3 S1000
G01 Y7.81 F100.0
M5
G00 X11.26 Y7.81 F100.0
G00 X11.36 Y7.81 F100.0
M3 S1000
G01 Y23.18 F100.0
M5
G00 X11.36 Y23.18 F100.0
G00 X11.46 Y23.18 F100.0
M3 S1000
G01 Y7.81 F100.0
M5
G00 X11.46 Y7.81 F100.0
G00 X11.56 Y7.81 F100.0
M3 S1000
G01 Y23.18 F100.0
M5
G00 X11.56 Y23.18 F100.0
G00 X11.66 Y23.18 F100.0
M3 S1000
G01 Y7.81 F100.0
M5
G00 X11.66 Y7.81 F100.0
G00 X11.76 Y7.81 F100.0
M3 S1000
G01 Y23.18 F100.0
M5
G00 X11.76 Y23.18 F100.0
G00 X11.86 Y23.18 F100.0
M3 S1000
G01 Y7.81 F100.0
M5
G00 X11.86 Y7.81 F100.0
G00 X11.96 Y7.81 F100.0
M3 S1000
G01 Y23.18 F100.0
M5
G00 X11.96 Y23.18 F100.0
G00 X12.06 Y23.18 F100.0
M3 S1000
G01 Y7.81 F100.0
M5
G00 X12.06 Y7.81 F100.0
G00 X12.16 Y7.81 F100.0
M3 S1000
G01 Y23.18 F100.0
M5
G00 X12.16 Y23.18 F100.0
G00 X12.26 Y23.18 F100.0
M3 S1000
G01 Y7.81 F100.0
M5
G00 X12.26 Y7.81 F100.0
G00 X12.36 Y7.81 F100.0
M3 S1000
G01 Y23.18 F100.0
M5
G00 X12.36 Y23.18 F100.0
G00 X12.46 Y23.18 F100.0
M3 S1000
G01 Y7.81 F100.0
M5
G00 X12.46 Y7.81 F100.0
G00 X12.56 Y7.81 F100.0
M3 S1000
G01 Y23.18 F100.0
M5
G00 X12.56 Y23.18 F100.0
G00 X12.66 Y23.18 F100.0
M3 S1000
G01 Y7.81 F100.0
M5
G00 X12.66 Y7.81 F100.0
G00 X12.76 Y7.81 F100.0
M3 S1000
G01 Y23.18 F100.0
M5
G00 X12.76 Y23.18 F100.0
G00 X12.86 Y23.18 F100.0
M3 S1000
G01 Y7.81 F100.0
M5
G00 X12.86 Y7.81 F100.0
G00 X12.96 Y7.81 F100.0
M3 S1000
G01 Y23.18 F100.0
M5
G00 X12.96 Y23.18 F100.0
G00 X13.06 Y23.18 F100.0
M3 S1000
G01 Y7.81 F100.0
M5
G00 X13.06 Y7.81 F100.0
G00 X13.16 Y7.81 F100.0
M3 S1000
G01 Y23.18 F100.0
M5
G00 X13.16 Y23.18 F100.0
G00 X13.26 Y23.18 F100.0
M3 S1000
G01 Y7.81 F100.0
M5
G00 X13.26 Y7.81 F100.0
G00 X13.36 Y7.81 F100.0
M3 S1000
G01 Y23.18 F100.0
M5
G00 X13.36 Y23.18 F100.0
G00 X13.46 Y23.18 F100.0
M3 S1000
G01 Y7.81 F100.0
M5
G00 X13.46 Y7.81 F100.0
G00 X13.56 Y7.81 F100.0
M3 S1000
G01 Y23.18 F100.0
M5
G00 X13.56 Y23.18 F100.0
G00 X13.66 Y23.18 F100.0
M3 S1000
G01 Y7.81 F100.0
M5
G00 X13.66 Y7.81 F100.0
G00 X13.76 Y7.81 F100.0
M3 S1000
G01 Y23.18 F100.0
M5
G00 X13.76 Y23.18 F100.0
G00 X13.86 Y23.18 F100.0
M3 S1000
G01 Y7.81 F100.0
M5
G00 X13.86 Y7.81 F100.0
G00 X13.96 Y7.81 F100.0
M3 S1000
G01 Y23.18 F100.0
M5
G00 X13.96 Y23.18 F100.0
G00 X14.06 Y23.18 F100.0
M3 S1000
G01 Y7.81 F100.0
M5
G00 X14.06 Y7.81 F100.0
G00 X14.16 Y7.81 F100.0
M3 S1000
G01 Y23.18 F100.0
M5
G00 X14.16 Y23.18 F100.0
G00 X14.26 Y23.18 F100.0
M3 S1000
G01 Y7.81 F100.0
M5
G00 X14.26 Y7.81 F100.0
G00 X14.36 Y7.81 F100.0
M3 S1000
G01 Y23.18 F100.0
M5
G00 X14.36 Y23.18 F100.0
G00 X14.46 Y23.18 F100.0
M3 S1000
G01 Y7.81 F100.0
M5
G00 X14.46 Y7.81 F100.0
G00 X14.56 Y7.81 F100.0
M3 S1000
G01 Y23.18 F100.0
M5
G00 X14.56 Y23.18 F100.0
G00 X14.66 Y23.18 F100.0
M3 S1000
G01 Y7.81 F100.0
M5
G00 X14.66 Y7.81 F100.0
G00 X14.76 Y7.81 F100.0
M3 S1000
G01 Y23.18 F100.0
M5
G00 X14.76 Y23.18 F100.0
G00 X14.86 Y23.18 F100.0
M3 S1000
G01 Y7.81 F100.0
M5
G00 X14.86 Y7.81 F100.0
G00 X14.96 Y7.81 F100.0
M3 S1000
G01 Y23.18 F100.0
M5
G00 X14.96 Y23.18 F100.0
G00 X15.06 Y23.18 F100.0
M3 S1000
G01 Y7.81 F100.0
M5
G00 X15.06 Y7.81 F100.0
G00 X15.16 Y7.81 F100.0
M3 S1000
G01 Y23.18 F100.0
M5
G00 X15.16 Y23.18 F100.0
G00 X15.26 Y23.18 F100.0
M3 S1000
G01 Y7.81 F100.0
M5
G00 X15.26 Y7.81 F100.0
G00 X15.36 Y7.81 F100.0
M3 S1000
G01 Y23.18 F100.0
M5
G00 X15.36 Y23.18 F100.0
G00 X15.46 Y23.18 F100.0
M3 S1000
G01 Y7.81 F100.0
M5
G00 X15.46 Y7.81 F100.0
G00 X15.56 Y7.81 F100.0
M3 S1000
G01 Y23.18 F100.0
M5
G00 X15.56 Y23.18 F100.0
G00 X15.66 Y23.18 F100.0
M3 S1000
G01 Y7.81 F100.0
M5
G00 X15.66 Y7.81 F100.0
G00 X15.76 Y7.81 F100.0
M3 S1000
G01 Y23.18 F100.0
M5
G00 X15.76 Y23.18 F100.0
G00 X15.86 Y23.18 F100.0
M3 S1000
G01 Y7.81 F100.0
M5
G00 X15.86 Y7.81 F100.0
G00 X15.96 Y7.81 F100.0
M3 S1000
G01 Y23.18 F100.0
M5
G00 X15.96 Y23.18 F100.0
G00 X16.06 Y23.18 F100.0
M3 S1000
G01 Y7.81 F100.0
M5
G00 X16.06 Y7.81 F100.0
G00 X16.16 Y7.81 F100.0
M3 S1000
G01 Y23.18 F100.0
M5
G00 X16.16 Y23.18 F100.0
G00 X16.26 Y23.18 F100.0
M3 S1000
G01 Y7.81 F100.0
M5
G00 X16.26 Y7.81 F100.0
G00 X16.36 Y7.81 F100.0
M3 S1000
G01 Y23.18 F100.0
M5
G00 X16.36 Y23.18 F100.0
G00 X16.46 Y23.18 F100.0
M3 S1000
G01 Y7.81 F100.0
M5
G00 X16.46 Y7.81 F100.0
G00 X16.56 Y7.81 F100.0
M3 S1000
G01 Y23.18 F100.0
M5
G00 X16.56 Y23.18 F100.0
G00 X16.66 Y23.18 F100.0
M3 S1000
G01 Y7.81 F100.0
M5
G00 X16.66 Y7.81 F100.0
G00 X16.76 Y7.81 F100.0
M3 S1000
G01 Y23.18 F100.0
M5
G00 X16.76 Y23.18 F100.0
G00 X16.86 Y23.18 F100.0
M3 S1000
G01 Y7.81 F100.0
M5
G00 X16.86 Y7.81 F100.0
G00 X16.96 Y7.81 F100.0
M3 S1000
G01 Y23.18 F100.0
M5
G00 X16.96 Y23.18 F100.0
G00 X17.06 Y23.18 F100.0
M3 S1000
G01 Y7.81 F100.0
M5
G00 X17.06 Y7.81 F100.0
G00 X17.16 Y7.81 F100.0
M3 S1000
G01 Y23.18 F100.0
M5
G00 X17.16 Y23.18 F100.0
G00 X17.26 Y23.18 F100.0
M3 S1000
G01 Y7.81 F100.0
M5
G00 X17.26 Y7.81 F100.0
G00 X17.36 Y7.81 F100.0
M3 S1000
G01 Y23.18 F100.0
M5
G00 X17.36 Y23.18 F100.0
G00 X17.46 Y23.18 F100.0
M3 S1000
G01 Y7.81 F100.0
M5
G00 X17.46 Y7.81 F100.0
G00 X17.56 Y7.81 F100.0
M3 S1000
G01 Y23.18 F100.0
M5
G00 X17.56 Y23.18 F100.0
G00 X17.66 Y23.18 F100.0
M3 S1000
G01 Y7.81 F100.0
M5
G00 X17.66 Y7.81 F100.0
G00 X17.76 Y7.81 F100.0
M3 S1000
G01 Y23.18 F100.0
M5
G00 X17.76 Y23.18 F100.0
G00 X17.86 Y23.18 F100.0
M3 S1000
G01 Y7.81 F100.0
M5
G00 X17.86 Y7.81 F100.0
G00 X17.96 Y7.81 F100.0
M3 S1000
G01 Y23.18 F100.0
M5
G00 X17.96 Y23.18 F100.0
G00 X18.06 Y23.18 F100.0
M3 S1000
G01 Y7.81 F100.0
M5
G00 X18.06 Y7.81 F100.0
G00 X18.16 Y7.81 F100.0
M3 S1000
G01 Y23.18 F100.0
M5
G00 X18.16 Y23.18 F100.0
G00 X18.26 Y23.18 F100.0
M3 S1000
G01 Y7.81 F100.0
M5
G00 X18.26 Y7.81 F100.0
G00 X18.36 Y7.81 F100.0
M3 S1000
G01 Y23.18 F100.0
M5
G00 X18.36 Y23.18 F100.0
G00 X18.46 Y23.18 F100.0
M3 S1000
G01 Y7.81 F100.0
M5
G00 X18.46 Y7.81 F100.0
G00 X18.56 Y7.81 F100.0
M3 S1000
G01 Y23.18 F100.0
M5
G00 X18.56 Y23.18 F100.0
G00 X18.66 Y23.18 F100.0
M3 S1000
G01 Y7.81 F100.0
M5
G00 X18.66 Y7.81 F100.0
G00 X18.76 Y7.81 F100.0
M3 S1000
G01 Y23.18 F100.0
M5
G00 X18.76 Y23.18 F100.0
G00 X18.86 Y23.18 F100.0
M3 S1000
G01 Y7.81 F100.0
M5
G00 X18.86 Y7.81 F100.0
G00 X18.96 Y7.81 F100.0
M3 S1000
G01 Y23.18 F100.0
M5
G00 X18.96 Y23.18 F100.0
G00 X19.06 Y23.18 F100.0
M3 S1000
G01 Y7.81 F100.0
M5
G00 X19.06 Y7.81 F100.0
G00 X19.16 Y7.81 F100.0
M3 S1000
G01 Y23.18 F100.0
M5
G00 X19.16 Y23.18 F100.0
G00 X19.26 Y23.18 F100.0
M3 S1000
G01 Y7.81 F100.0
M5
G00 X19.26 Y7.81 F100.0
G00 X19.36 Y7.81 F100.0
M3 S1000
G01 Y23.18 F100.0
M5
G00 X19.36 Y23.18 F100.0
G00 X19.46 Y23.18 F100.0
M3 S1000
G01 Y7.81 F100.0
M5
G00 X19.46 Y7.81 F100.0
G00 X19.56 Y7.81 F100.0
M3 S1000
G01 Y23.18 F100.0
M5
G00 X19.56 Y23.18 F100.0
G00 X19.66 Y23.18 F100.0
M3 S1000
G01 Y7.81 F100.0
M5
G00 X19.66 Y7.81 F100.0
G00 X19.76 Y7.81 F100.0
M3 S1000
G01 Y23.18 F100.0
M5
G00 X19.76 Y23.18 F100.0
G00 X19.86 Y23.18 F100.0
M3 S1000
G01 Y7.81 F100.0
M5
G00 X19.86 Y7.81 F100.0
G00 X19.96 Y7.81 F100.0
M3 S1000
G01 Y23.18 F100.0
M5
G00 X19.96 Y23.18 F100.0
G00 X20.06 Y23.18 F100.0
M3 S1000
G01 Y7.81 F100.0
M5
G00 X20.06 Y7.81 F100.0
G00 X20.16 Y7.81 F100.0
M3 S1000
G01 Y23.18 F100.0
M5
G00 X20.16 Y23.18 F100.0
G00 X20.26 Y23.18 F100.0
M3 S1000
G01 Y7.81 F100.0
M5
G00 X20.26 Y7.81 F100.0
G00 X20.36 Y7.81 F100.0
M3 S1000
G01 Y23.18 F100.0
M5
G00 X20.36 Y23.18 F100.0
G00 X20.46 Y23.18 F100.0
M3 S1000
G01 Y7.81 F100.0
M5
G00 X20.46 Y7.81 F100.0
G00 X20.56 Y7.81 F100.0
M3 S1000
G01 Y23.18 F100.0
M5
G00 X20.56 Y23.18 F100.0
G00 X20.66 Y23.18 F100.0
M3 S1000
G01 Y7.81 F100.0
M5
G00 X20.66 Y7.81 F100.0
G00 X20.76 Y7.81 F100.0
M3 S1000
G01 Y23.18 F100.0
M5
G00 X20.76 Y23.18 F100.0
G00 X20.86 Y23.18 F100.0
M3 S1000
G01 Y7.81 F100.0
M5
G00 X20.86 Y7.81 F100.0
G00 X20.96 Y7.81 F100.0
M3 S1000
G01 Y23.18 F100.0
M5
G00 X20.96 Y23.18 F100.0
G00 X21.06 Y23.18 F100.0
M3 S1000
G01 Y7.81 F100.0
M5
G00 X21.06 Y7.81 F100.0
G00 X21.16 Y7.81 F100.0
M3 S1000
G01 Y23.18 F100.0
M5
G00 X21.16 Y23.18 F100.0
G00 X21.26 Y23.18 F100.0
M3 S1000
G01 Y7.81 F100.0
M5
G00 X21.26 Y7.81 F100.0
G00 X21.36 Y7.81 F100.0
M3 S1000
G01 Y23.18 F100.0
M5
G00 X21.36 Y23.18 F100.0
G00 X21.46 Y23.18 F100.0
M3 S1000
G01 Y7.81 F100.0
M5
G00 X21.46 Y7.81 F100.0
G00 X21.56 Y7.81 F100.0
M3 S1000
G01 Y23.18 F100.0
M5
G00 X21.56 Y23.18 F100.0
G00 X21.66 Y23.18 F100.0
M3 S1000
G01 Y7.81 F100.0
M5
G00 X21.66 Y7.81 F100.0
G00 X21.76 Y7.81 F100.0
M3 S1000
G01 Y23.18 F100.0
M5
G00 X21.76 Y23.18 F100.0
G00 X21.86 Y23.18 F100.0
M3 S1000
G01 Y7.81 F100.0
M5
G00 X21.86 Y7.81 F100.0
G00 X21.96 Y7.81 F100.0
M3 S1000
G01 Y23.18 F100.0
M5
G00 X21.96 Y23.18 F100.0
G00 X22.06 Y23.18 F100.0
M3 S1000
G01 Y7.81 F100.0
M5
G00 X22.06 Y7.81 F100.0
G00 X22.16 Y7.81 F100.0
M3 S1000
G01 Y23.18 F100.0
M5
G00 X22.16 Y23.18 F100.0
G00 X22.26 Y23.18 F100.0
M3 S1000
G01 Y7.81 F100.0
M5
G00 X22.26 Y7.81 F100.0
G00 X22.36 Y7.81 F100.0
M3 S1000
G01 Y23.18 F100.0
M5
G00 X22.36 Y23.18 F100.0
G00 X22.46 Y23.18 F100.0
M3 S1000
G01 Y7.81 F100.0
M5
G00 X22.46 Y7.81 F100.0
G00 X22.56 Y7.81 F100.0
M3 S1000
G01 Y23.18 F100.0
M5
G00 X22.56 Y23.18 F100.0
G00 X22.66 Y23.18 F100.0
M3 S1000
G01 Y7.81 F100.0
M5
G00 X22.66 Y7.81 F100.0
G00 X22.76 Y7.81 F100.0
M3 S1000
G01 Y23.18 F100.0
M5
G00 X22.76 Y23.18 F100.0
G00 X22.86 Y23.18 F100.0
M3 S1000
G01 Y7.81 F100.0
M5
G00 X22.86 Y7.81 F100.0
G00 X22.96 Y7.81 F100.0
M3 S1000
G01 Y23.18 F100.0
M5
G00 X22.96 Y23.18 F100.0
G00 X23.06 Y23.18 F100.0
M3 S1000
G01 Y7.81 F100.0
M5
G00 X23.06 Y7.81 F100.0
G00 X23.16 Y7.81 F100.0
M3 S1000
G01 Y23.18 F100.0
M5
G00 X23.16 Y23.18 F100.0
G00 X23.26 Y23.18 F100.0
M3 S1000
G01 Y7.81 F100.0
M5
G00 X23.26 Y7.81 F100.0
G00 X23.36 Y7.81 F100.0
M3 S1000
G01 Y23.18 F100.0
M5
G00 X23.36 Y23.18 F100.0
G00 X23.46 Y23.18 F100.0
M3 S1000
G01 Y7.81 F100.0
M5
G00 X23.46 Y7.81 F100.0
G00 X23.56 Y7.81 F100.0
M3 S1000
G01 Y23.18 F100.0
M5
G00 X23.56 Y23.18 F100.0
G00 X23.66 Y23.18 F100.0
M3 S1000
G01 Y7.81 F100.0
M5
G00 X23.66 Y7.81 F100.0
G00 X23.76 Y7.81 F100.0
M3 S1000
G01 Y23.18 F100.0
M5
G00 X23.76 Y23.18 F100.0
G00 X23.86 Y23.18 F100.0
M3 S1000
G01 Y7.81 F100.0
M5
G00 X23.86 Y7.81 F100.0
G00 X23.96 Y7.81 F100.0
M3 S1000
G01 Y23.18 F100.0
M5
G00 X23.96 Y23.18 F100.0
G00 X24.06 Y23.18 F100.0
M3 S1000
G01 Y7.81 F100.0
M5
G00 X24.06 Y7.81 F100.0
G00 X24.16 Y7.81 F100.0
M3 S1000
G01 Y23.18 F100.0
M5
G00 X24.16 Y23.18 F100.0
G00 X24.26 Y23.18 F100.0
M3 S1000
G01 Y7.81 F100.0
M5
G00 X24.26 Y7.81 F100.0
G00 X24.36 Y7.81 F100.0
M3 S1000
G01 Y23.18 F100.0
M5
G00 X24.36 Y23.18 F100.0
G00 X24.46 Y23.18 F100.0
M3 S1000
G01 Y7.81 F100.0
M5
G00 X24.46 Y7.81 F100.0
G00 X24.56 Y7.81 F100.0
M3 S1000
G01 Y23.18 F100.0
M5
G00 X24.56 Y23.18 F100.0
G00 X24.66 Y23.18 F100.0
M3 S1000
G01 Y7.81 F100.0
M5
G00 X24.66 Y7.81 F100.0
G00 X24.76 Y7.81 F100.0
M3 S1000
G01 Y23.18 F100.0
M5
G00 X24.76 Y23.18 F100.0
G00 X24.86 Y23.18 F100.0
M3 S1000
G01 Y7.81 F100.0
M5
G00 X24.86 Y7.81 F100.0
G00 X24.96 Y7.81 F100.0
M3 S1000
G01 Y23.18 F100.0
M5
G00 X24.96 Y23.18 F100.0
G00 X25.06 Y23.18 F100.0
M3 S1000
G01 Y7.81 F100.0
M5
G00 X25.06 Y7.81 F100.0
M5
;END infill

; START perimeter strategy
G01 F100.0
M5
G00 X9.76 Y23.18 F100.0
M3 S1000 F100.0
G01 X9.95 F100.0
G01 X23.95 F100.0
G01 X25.14 F100.0
G01 Y23.0 F100.0
G01 Y9.0 F100.0
G01 Y7.81 F100.0
G01 X24.95 F100.0
G01 X10.95 F100.0
G01 X9.76 F100.0
G01 Y8.0 F100.0
G01 Y22.0 F100.0
G01 Y23.18 F100.0
M5
;END perimeter

G00 X0 Y0

M05 S0	;Deactivate laser and set power to 0 (CUSTOM)
M02	;End of program
